themes/ColwichTheme/static/images/icons/back.svg

<svg viewBox="0 0 512 512" xmlns="http://www.w3.org/2000/svg"><path d="m145.7 130c-8.754-3.812-18.95-2.079-25.94 4.406l-112.082 103.994c-10.24 9.5-10.24 25.69 0 35.19l112.1 104c6.992 6.484 17.18 8.219 25.94 4.407 8.758-3.812 14.42-12.45 14.42-22v-208.897c-.038-8.6-5.738-17.3-14.438-21.1z"/><path d="m512 256c0 17.7-14.3 32-32 32h-319.9v-64h319.9c17.7 0 32 14.3 32 32z" opacity=".4"/></svg>

<svg xmlns="http://www.w3.org/2000/svg" viewBox="0 0 512 512"><!--! Font Awesome Pro 6.1.1 by @fontawesome - https://fontawesome.com License - https://fontawesome.com/license (Commercial License) Copyright 2022 Fonticons, Inc. --><defs><style>.fa-secondary{opacity:.4}</style></defs><path class="fa-primary" d="M145.7 130c-8.754-3.812-18.95-2.079-25.94 4.406L7.678 238.4c-10.24 9.5-10.24 25.69 0 35.19l112.1 104c6.992 6.484 17.18 8.219 25.94 4.407c8.758-3.812 14.42-12.45 14.42-22V151.1C160.1 142.5 154.4 133.8 145.7 130z"/><path class="fa-secondary" d="M512 256C512 273.7 497.7 288 480 288H160.1V224H480C497.7 224 512 238.3 512 256z"/></svg>
